X:1
T:God’s Holy Church Shall Triumph
T:God’s Holy Church Shall Triumph
T:John Robson Sweney
T:Frances Jane (Fanny) Crosby, 1887
T:Public Domain Courtesy of the Cyber Hymnal™
T:Public Domain Courtesy of the Cyber Hymnal™
C:John Robson Sweney
Z:Public Domain
Z:Courtesy of the Cyber Hymnal™
%%score ( 1 2 ) ( 3 4 )
L:1/8
Q:1/4=113
M:2/2
K:Ab
V:1 treble 
V:2 treble 
V:3 bass 
V:4 bass 
V:1
 [CE]2 | [CA]3 [DB] [Ec]2 [DB]2 | ([CA]2 E2) C2 E2 | [EA]3 [EA] [EB]2 [EB]2 | [Ec]6 [Ec]2 | %5
w: 1.~Press|on, press on, ye|work- * ers, Be|loy- al, brave, and|true: Great|
w: 2.~The|walls of leagued op-|pres- * sion To|dust shall fall a-|way; The|
w: 3.~Be-|hold her march- ing|on- * ward, In|ma- jes- ty sub-|lime, A-|
 [Ed]3 [Ed] [Ed]2 [Ed]2 | [Ec]4 [EA]2 [Ec]2 | [EB]2 [=DA]2 [EG]2 [DF]2 | E6 E2 | %9
w: things the Lord is|do- ing, And|great- er things will|do; His|
w: sword of truth e-|ter- nal No|power on earth can|stay; Though|
w: long the roll- ing|prair- ies That|bound our west- ern|clime; And|
 E2 [=DF]2 [_DG]2 [DE]2 | [CA]4 [CA]2 [EA]2 | [EB]3 E E2 E2 | [Ec]6 [_Gc]2 | %13
w: ar- my, still in-|creas- ing With|each re- volv- ing|year, Shall|
w: all the hosts of|dark- ness Were|mar- shaled on the|field, The|
w: soon from ev- ery|ham- let On|all our vast fron-|tier Glad|
 [Fd]3 [Fd] [Fd]2 [Fd]2 | [Fd]2 [Ec]2 [DB]2 [CA]2 | [Ec]3 [EB] [EA]2 [DG]2 | [CA]6 || %17
w: send a shout of|rap- ture forth That|all the world shall|hear.|
w: Church of God would|stand un- moved, With|Christ her strength and|shield.|
w: songs shall rise to|J- e- sus, While|skep- tics turn to|hear.|
"^Refrain" e2 | (z2 [DG]2) x6 | A6 [CE]2 | [DF]2 [EG]2 [FA]2 [FB]2 | [=Ec]6 [Ec]2 | %22
w: |||||
w: Re-||joice, re-|joice, ye work- ers|all re-|
w: |||||
 [Ed]2 [EB]2 [EG]2 E2 | A6 [Ec]2 | [EB]2 [Ge]2 [Ge]2 [A=d]2 | [Ge]6 E2 | E2 [Ed]2 [Ec]2 [DB]2 | %27
w: |||||
w: joice; O, clap your|hands and|sing, O, clap your|hands and|sing; God’s ho- ly|
w: |||||
 [CA]3 [CA] [CA]2 z2 | [EB]3 [EB] [EB]2 z2 | [Ec]2 [Ed]2 [Ee]2 [Ae]2 | [Af]3 [Af] [Af]2 [Af]2 | %31
w: ||||
w: Church shall tri-|umph yet, Tri-|umph yet, tri- umph|yet, And He shall|
w: ||||
 [Ae]6 [Ae]2 | [Ge]4 [EG]4 | [EA]6 |] %34
w: |||
w: reign our|king, Shall|reign|
w: |||
V:2
 x2 | x8 | x2 E2 C2 E2 | x8 | x8 | x8 | x8 | x8 | E6 E2 | E2 x6 | x8 | x3 E E2 E2 | x8 | x8 | x8 | %15
 x8 | x6 || x2 | (e6 G2 G2) | (C3 C C2) x2 | x8 | x8 | x6 E2 | (E3 E E2) x2 | x8 | x6 E2 | E2 x6 | %27
 x8 | x8 | x8 | x8 | x8 | x8 | x6 |] %34
V:3
 [A,,A,]2 | [A,,E,]3 [A,,E,] [A,,A,]2 [E,G,]2 | A,2 E,2 C,2 E,2 | [C,A,]3 [C,A,] [E,G,]2 [E,G,]2 | %4
 A,6 A,2 | [G,B,]3 [A,C] [G,B,]2 [G,B,]2 | A,4 [A,,C]2 [A,,A,]2 | %7
 [B,,G,]2 [B,,F,]2 [B,,B,]2 [B,,A,]2 | [E,G,]6 [E,G,]2 | [E,G,]2 [E,A,]2 [E,B,]2 [G,B,]2 | %10
 A,4 [A,,A,]2 [C,A,]2 | [E,G,]3 [G,B,] [G,B,]2 [G,B,]2 | A,6 A,2 | [D,A,]3 [D,A,] [D,A,]2 [D,A,]2 | %14
 [B,,B,]2 [C,A,]2 [D,F,]2 E,2 | [E,A,]3 [E,D] [E,C]2 [E,B,]2 | [A,,A,]6 || z2 | %18
 z2 [E,B,]2 [E,B,]2 [E,B,]2 x2 | [A,,A,]3 [A,,E,] [A,,E,]2 [A,,A,]2 | %20
 [D,A,]2 [D,A,]2 [D,A,]2 [D,F,]2 | [C,G,]6 [C,G,]2 | [E,G,]2 [E,G,]2 [E,B,]2 [G,D]2 | %23
 [A,C]3 [A,C] [A,C]2 [A,,A,]2 | [B,,G,]2 [B,,B,]2 [B,,B,]2 [B,,B,]2 | [E,B,]6 [E,G,]2 | %26
 [E,G,]2 [E,B,]2 [E,A,]2 [E,G,]2 | [A,,A,]3 [A,,E,] [A,,D,]2 z2 | [E,G,]3 [E,G,] [E,G,]2 z2 | %29
 A,2 [A,B,]2 [A,C]2 [A,C]2 | [D,D]3 [D,D] [D,D]2 [D,D]2 | [A,C]6 [A,C]2 | [E,B,]4 [E,D]4 | %33
 [A,,C]6 |] %34
V:4
 x2 | x8 | (A,2 E,2) C,2 E,2 | x8 | A,6 A,2 | x8 | A,4 x4 | x8 | x8 | x8 | A,4 x4 | x8 | A,6 A,2 | %13
 x8 | x6 E,2 | x8 | x6 || x2 | x10 | x8 | x8 | x8 | x8 | x8 | x8 | x8 | x8 | x8 | x8 | A,2 x6 | %30
 x8 | x8 | x8 | x6 |] %34

